images/class_icons/demolitionist.svg

<svg height="400" viewBox="0 0 400 400" width="400" xmlns="http://www.w3.org/2000/svg"><path d="m228.529.601c-1.096 1.095-.672 17.886.48 19.039 1.748 1.748 4.174 1.247 5.772-1.192 3.035-4.633-2.803-21.297-6.252-17.847m25.263 11.996c-5.658 5.171-7.798 9.164-6.044 11.278 2.57 3.095 7.236-.251 12.044-8.639 4.759-8.3 1.677-9.656-6-2.639m-27.666 18.637c-7.917 3.407-8.523 5.726-4.232 16.208l2.975 7.267 2.373-1.904c3.387-2.717 4.29-5.878 4.29-15.026 0-8.814-.035-8.857-5.406-6.545m9.856 1.252c-1.66 1.661-1.997 15.929-.419 17.758.534.619 4.954-10.591 5.485-13.91.782-4.893-1.947-6.966-5.066-3.848m21.225 1.495c-6.126 1.493-6.735 8.361-.74 8.361 3.112 0 11.344-2.999 13.614-4.96l2.442-2.109-2.537-.97c-2.541-.972-9.401-1.145-12.779-.322m-47.656 5.566c-5.366 5.448-5.116 6.849 2.584 14.48 6.167 6.113 7.067 6.231 9.165 1.21 1.123-2.688 1.124-3.425.012-5.521-.707-1.33-2.685-5.133-4.398-8.452l-3.113-6.032zm-10.229 7.525c-6.631 8.31-4.901 13.232 6.273 17.847 12.575 5.193 14.001-2.555 2.153-11.696-2.737-2.112-5.222-4.613-5.522-5.558-.631-1.989-1.628-2.193-2.904-.593m45.368 5.976c-2.41 2.663-1.401 4.076 5.245 7.348 11.729 5.774 16.204 3.676 7.399-3.468-6.806-5.522-10.212-6.567-12.644-3.88m-54.954 8.737c-.818 2.131-.633 11.459.254 12.859.797 1.257 20.33 3.243 21.965 2.233.442-.273.541-1.568.219-2.876-1.143-4.653-3.001-6.31-9.229-8.234-3.34-1.032-7.419-2.67-9.065-3.641-3.599-2.124-3.464-2.113-4.144-.341m-.096 18.715c-3.751 2.856.15 4.645 9.968 4.571 9.354-.07 11.809-1.067 9.158-3.718-2.17-2.17-16.554-2.811-19.126-.853m-10.368 13.117c-13.276 1.857-14.727 3.409-15.166 16.228l-.331 9.681 9.779-1.612c16.992-2.803 50.488-1.947 61.929 1.581 1.607.496 1.676.018 1.281-8.81-.566-12.669-.933-13.203-11.088-16.137-4.275-1.235-39.219-1.936-46.404-.931m-.057 31.121c-95.263 15.639-148.464 111.891-108.075 195.532 33.92 70.243 121.091 99.816 192.59 65.338 71.194-34.33 99.404-117.315 63.519-186.85-26.733-51.801-90.168-83.52-148.034-74.02m-14.659 69.398c5.63 1.672 13.202 7.378 25.984 19.582l9.909 9.461 11.067-10.635c11.741-11.281 19.841-17.315 25.263-18.821 25.347-7.041 56.464 18.015 56.464 45.466 0 16.722-.777 17.762-50.684 67.867-36.942 37.089-40.705 40.309-44.741 38.291-3.842-1.921-77.418-75.875-83.207-83.635-13.344-17.888-11.304-34.377 6.463-52.23 15.592-15.667 27.843-19.99 43.482-15.346" fill-rule="evenodd"/></svg>

<svg id="svg" xmlns="http://www.w3.org/2000/svg" xmlns:xlink="http://www.w3.org/1999/xlink" width="400" height="400" viewBox="0, 0, 400,400"><g id="svgg"><path id="path0" d="M228.529 0.601 C 227.433 1.696,227.857 18.487,229.009 19.640 C 230.757 21.388,233.183 20.887,234.781 18.448 C 237.816 13.815,231.978 -2.849,228.529 0.601 M253.792 12.597 C 248.134 17.768,245.994 21.761,247.748 23.875 C 250.318 26.970,254.984 23.624,259.792 15.236 C 264.551 6.936,261.469 5.580,253.792 12.597 M226.126 31.234 C 218.209 34.641,217.603 36.960,221.894 47.442 L 224.869 54.709 227.242 52.805 C 230.629 50.088,231.532 46.927,231.532 37.779 C 231.532 28.965,231.497 28.922,226.126 31.234 M235.982 32.486 C 234.322 34.147,233.985 48.415,235.563 50.244 C 236.097 50.863,240.517 39.653,241.048 36.334 C 241.830 31.441,239.101 29.368,235.982 32.486 M257.207 33.981 C 251.081 35.474,250.472 42.342,256.467 42.342 C 259.579 42.342,267.811 39.343,270.081 37.382 L 272.523 35.273 269.986 34.303 C 267.445 33.331,260.585 33.158,257.207 33.981 M209.551 39.547 C 204.185 44.995,204.435 46.396,212.135 54.027 C 218.302 60.140,219.202 60.258,221.300 55.237 C 222.423 52.549,222.424 51.812,221.312 49.716 C 220.605 48.386,218.627 44.583,216.914 41.264 L 213.801 35.232 209.551 39.547 M199.322 47.072 C 192.691 55.382,194.421 60.304,205.595 64.919 C 218.170 70.112,219.596 62.364,207.748 53.223 C 205.011 51.111,202.526 48.610,202.226 47.665 C 201.595 45.676,200.598 45.472,199.322 47.072 M244.690 53.048 C 242.280 55.711,243.289 57.124,249.935 60.396 C 261.664 66.170,266.139 64.072,257.334 56.928 C 250.528 51.406,247.122 50.361,244.690 53.048 M189.736 61.785 C 188.918 63.916,189.103 73.244,189.990 74.644 C 190.787 75.901,210.320 77.887,211.955 76.877 C 212.397 76.604,212.496 75.309,212.174 74.001 C 211.031 69.348,209.173 67.691,202.945 65.767 C 199.605 64.735,195.526 63.097,193.880 62.126 C 190.281 60.002,190.416 60.013,189.736 61.785 M189.640 80.500 C 185.889 83.356,189.790 85.145,199.608 85.071 C 208.962 85.001,211.417 84.004,208.766 81.353 C 206.596 79.183,192.212 78.542,189.640 80.500 M179.272 93.617 C 165.996 95.474,164.545 97.026,164.106 109.845 L 163.775 119.526 173.554 117.914 C 190.546 115.111,224.042 115.967,235.483 119.495 C 237.090 119.991,237.159 119.513,236.764 110.685 C 236.198 98.016,235.831 97.482,225.676 94.548 C 221.401 93.313,186.457 92.612,179.272 93.617 M179.215 124.738 C 83.952 140.377,30.751 236.629,71.140 320.270 C 105.060 390.513,192.231 420.086,263.730 385.608 C 334.924 351.278,363.134 268.293,327.249 198.758 C 300.516 146.957,237.081 115.238,179.215 124.738 M164.556 194.136 C 170.186 195.808,177.758 201.514,190.540 213.718 L 200.449 223.179 211.516 212.544 C 223.257 201.263,231.357 195.229,236.779 193.723 C 262.126 186.682,293.243 211.738,293.243 239.189 C 293.243 255.911,292.466 256.951,242.559 307.056 C 205.617 344.145,201.854 347.365,197.818 345.347 C 193.976 343.426,120.400 269.472,114.611 261.712 C 101.267 243.824,103.307 227.335,121.074 209.482 C 136.666 193.815,148.917 189.492,164.556 194.136 " stroke="none" fill="#000000" fill-rule="evenodd"></path></g></svg>
